X:6
T:Duettines.2voices. JClw.06
M:2/4
L:1/8
Q:1/4=80
S:J.Clews MS,Stoke-upon-Tern,Shrops.1832
N:Bar missing in B music??
A:N. Shropshire
Z:Neil Brookes 2006
K:C
[V:1] geaf|dfec|d/d/e/e/ f/f/d/d/|g/g/e/e/ d2|
[V:2] ecfd|GdcE|G/G/c/c/ d/d/G/G/|e/e/c/c/ G2|
%
[V:1] geaf|dfec|e/e/a/a/ ^f/f/g/g/|a/a/^f/f/ g2||
[V:2] ecfd|GdcE|c/c/c/c/ d/d/e/e/|c/c/d/d/G2||
%
[V:1] de dg|dedG|e/e/d/d/f/f/e/e/|d/d/e/f/ {f}e2|
[V:2] GcG2|GcG2|c/c/G/G/ d/d/c/c/|G/G/c/d/ {d}c2|
%
[V:1] de dG|g/g/e/e/ a/a/f/f/|e/e/d/d/ c2|]
[V:2] Gc G2|e/e/c/c/ c/c/d/d/|c/c/G/G/ E2|]

